X:3489
L:1/4
M:6/4
K:G
 g2 g g d B | g d B A3 | B3/2 c/ d e f g | a e g f3/2 e/ d/c/ | B d g B d g | B d g f2 g | 
 a3/2 b/a/g/ f d g | g2 f g3 :| B A G B A G | B d d d2 ^d | e B e e g (f/e/) | (^d3 d2) f | 
 g f e b B e/f/ | g f e b ^d e | e3/2 f/ g f2 e | (e3 e2) e/f/ | g3/2 f/ e d c B | A B G F A D | 
 G3/2 A/ B B3/2 A/ G | (d3 d2) | e3/2 f/ g d c B | c3/2 d/ e e3/2 f/ g/a/ | f g a g a f | g6 |]

